img/movies/movies3.svg

<svg xmlns="http://www.w3.org/2000/svg" viewBox="0 0 204.106 204.106"><path d="M135.83 204.106H62.66a2 2 0 0 1-1.7-3.054l17.44-28.112H66.677c-.44 0-.87-.146-1.218-.414l-17.485-13.428a1.994 1.994 0 0 1-.797-1.62V52c0-1.927.105-3.83.31-5.702a2.007 2.007 0 0 1 .166-1.34 51.535 51.535 0 0 1 3.504-12.91c.043-.147.104-.29.178-.42A52.24 52.24 0 0 1 64.74 13.07a2.03 2.03 0 0 1 .46-.402C73.364 5.604 83.742 1.035 95.136.155l.095-.007a52.807 52.807 0 0 1 7.99.007c11.395.88 21.772 5.45 29.935 12.51.177.11.334.25.467.408a52.44 52.44 0 0 1 6.984 7.53c.14.14.26.298.354.473a52.186 52.186 0 0 1 4.728 7.676l5.582-1.95a2 2 0 0 1 2.53 1.18l3 7.915a1.997 1.997 0 0 1-1.203 2.593l-5.697 2.023A52.02 52.02 0 0 1 151.178 52v105.476c0 .06 0 .118-.006.176a1.98 1.98 0 0 1-.693 1.366c-.032.027-.065.054-.1.08l-17.484 13.427a2 2 0 0 1-1.218.414h-11.59l17.44 28.11a2.002 2.002 0 0 1-1.7 3.056zm-69.574-4h65.98L115.38 172.94H107.6a11.715 11.715 0 0 1-8.355 3.49c-.013 0-.037-.002-.035 0h-.02-.065a11.726 11.726 0 0 1-8.303-3.492h-7.715l-16.85 27.168zm26.753-30.74c.106.085.206.182.296.29a7.73 7.73 0 0 0 5.905 2.775h.022a7.738 7.738 0 0 0 3.02-.634 7.76 7.76 0 0 0 4.677-7.115v-50.916H91.495V157.5c0 .18-.023.352-.067.517v6.665c-.002 1.76.587 3.383 1.58 4.685zm23.486-.427H131l12.29-9.44h-32.36v5.18c0 1.502-.284 2.94-.8 4.26h6.366zm-34.5 0h6.23a11.698 11.698 0 0 1-.798-4.26v-5.18H55.066l12.292 9.44h14.638zm29-13.44h36.183V58.106h-37.245c4.092 3.19 6.728 8.164 6.728 13.742V104.606c-.002.462-.16.887-.426 1.224l-5.24 6.83v42.84zm-59.818 0h36.25v-42.926l-5.176-6.744a1.992 1.992 0 0 1-.424-1.19v-.002-32.79c0-5.578 2.636-10.552 6.728-13.742H51.178V155.5zm39.137-45.735h17.86l2.43-3.167h-22.72l2.43 3.167zm-4.486-7.167h26.832v-30.75c0-7.398-6.02-13.417-13.416-13.417-7.398 0-13.417 6.02-13.417 13.418v30.75zM51.177 54.106h96V52c0-1.396-.06-2.778-.177-4.144H117.18a2 2 0 0 1-2-2v-23.83a2 2 0 0 1 2-2h17.77a48.49 48.49 0 0 0-3.654-3.67h-10.116c-.397 0-.786-.12-1.116-.34l-12.926-8.693 2.41 6.32a1.998 1.998 0 0 1-1.868 2.713H89.845a2 2 0 0 1-1.825-2.82l2.334-5.19-10.232 7.614a2.002 2.002 0 0 1-1.194.396H67.062a48.32 48.32 0 0 0-10.85 14.254h17.216a2 2 0 0 1 2 2v13.246a2 2 0 0 1-2 2H51.355A48.55 48.55 0 0 0 51.178 52v2.106zm68-10.25h27.31a47.758 47.758 0 0 0-8.324-19.83H119.18v19.83zm-67.308 0h19.56V34.61H54.436a47.53 47.53 0 0 0-2.567 9.246zm95.478-11.447a52.155 52.155 0 0 1 1.515 4.228l3.472-1.233-1.586-4.184-3.402 1.19zm-25.56-20.054h4.426a47.845 47.845 0 0 0-14.304-6.643l9.878 6.643zm-28.85 0h11.837L101.61 4.06a48.51 48.51 0 0 0-4.943.005l-3.73 8.29zm-20.796 0h6.124l9.33-6.944a47.806 47.806 0 0 0-15.454 6.944zM99.246 87.93c-5.836 0-10.584-4.747-10.584-10.582 0-5.835 4.748-10.583 10.584-10.583s10.583 4.748 10.583 10.583c0 5.836-4.75 10.583-10.584 10.583zm0-17.165a6.59 6.59 0 0 0-6.584 6.583 6.59 6.59 0 0 0 6.584 6.583 6.59 6.59 0 0 0 6.583-6.582 6.59 6.59 0 0 0-6.584-6.583zm5.682-22.91h-20.75a2 2 0 0 1-2-2V32.61a2 2 0 0 1 2-2h20.75a2 2 0 0 1 2 2v13.246a2 2 0 0 1-2 2zm-18.75-4h16.75V34.61h-16.75v9.246zm46.338-1.664c-4.55 0-8.25-3.7-8.25-8.25s3.7-8.25 8.25-8.25 8.25 3.702 8.25 8.25-3.7 8.25-8.25 8.25zm0-12.5c-2.344 0-4.25 1.908-4.25 4.25s1.906 4.25 4.25 4.25 4.25-1.906 4.25-4.25-1.906-4.25-4.25-4.25z"/></svg>

<?xml version="1.0" encoding="iso-8859-1"?>
<!-- Generator: Adobe Illustrator 17.1.0, SVG Export Plug-In . SVG Version: 6.00 Build 0)  -->
<!DOCTYPE svg PUBLIC "-//W3C//DTD SVG 1.1//EN" "http://www.w3.org/Graphics/SVG/1.1/DTD/svg11.dtd">
<svg version="1.1" id="Capa_1" xmlns="http://www.w3.org/2000/svg" xmlns:xlink="http://www.w3.org/1999/xlink" x="0px" y="0px"
	 viewBox="0 0 204.106 204.106" style="enable-background:new 0 0 204.106 204.106;" xml:space="preserve">
<path d="M135.829,204.106H62.662c-0.726,0-1.395-0.393-1.748-1.027c-0.353-0.634-0.334-1.41,0.049-2.027l17.438-28.112H66.678
	c-0.44,0-0.869-0.146-1.218-0.414l-17.485-13.428c-0.033-0.025-0.066-0.052-0.098-0.079c-0.123-0.105-0.229-0.222-0.321-0.349
	c-0.21-0.29-0.344-0.639-0.372-1.017c-0.005-0.059-0.007-0.117-0.006-0.176V52c0-1.927,0.105-3.829,0.311-5.702
	c-0.032-0.142-0.049-0.29-0.049-0.441c0-0.324,0.077-0.629,0.214-0.9c0.613-4.511,1.807-8.839,3.504-12.908
	c0.043-0.148,0.104-0.29,0.178-0.421c3.055-7.147,7.664-13.475,13.404-18.558c0.132-0.156,0.287-0.292,0.46-0.402
	C73.364,5.604,83.742,1.035,95.136,0.155c0.032-0.003,0.063-0.005,0.095-0.007c2.607-0.197,5.287-0.197,7.895,0
	c0.031,0.001,0.063,0.004,0.095,0.007c11.394,0.88,21.771,5.449,29.934,12.51c0.177,0.111,0.334,0.249,0.467,0.408
	c2.567,2.274,4.907,4.796,6.984,7.53c0.141,0.139,0.261,0.298,0.354,0.473c1.787,2.408,3.372,4.976,4.728,7.676l5.582-1.949
	c1.023-0.357,2.145,0.166,2.529,1.179l3,7.915c0.19,0.503,0.171,1.062-0.056,1.549c-0.226,0.488-0.639,0.864-1.146,1.044
	l-5.697,2.023c0.836,3.696,1.278,7.541,1.278,11.486v105.477c0.001,0.059-0.001,0.118-0.006,0.176
	c-0.028,0.378-0.162,0.727-0.372,1.017c-0.092,0.127-0.198,0.244-0.321,0.349c-0.031,0.027-0.064,0.054-0.098,0.079l-17.485,13.428
	c-0.349,0.268-0.777,0.414-1.218,0.414h-11.589l17.438,28.112c0.383,0.617,0.401,1.393,0.049,2.027
	C137.223,203.713,136.554,204.106,135.829,204.106z M66.256,200.106h65.979l-16.853-27.167h-7.783
	c-2.201,2.23-5.195,3.492-8.354,3.492c-0.013,0-0.037-0.003-0.035,0c-0.003,0-0.006,0-0.01,0c-0.005,0-0.007,0-0.011,0
	c0,0-0.008,0-0.012,0s-0.012,0-0.012,0c-0.004,0-0.006,0-0.011,0c-0.004,0-0.007,0-0.01,0c-0.004,0-0.005,0-0.01,0
	c-0.003,0-0.006,0-0.009,0l0,0c-1.198-0.005-2.354-0.19-3.441-0.53c-1.826-0.568-3.496-1.579-4.862-2.962h-7.715L66.256,200.106z
	 M93.009,169.367c0.107,0.084,0.207,0.181,0.297,0.288c1.472,1.756,3.622,2.767,5.905,2.776c0.004,0,0.005-0.001,0.009,0
	c0.004,0,0.008,0,0.012,0c0,0,0,0,0.001,0c1.052-0.007,2.075-0.228,3.018-0.635c2.75-1.191,4.678-3.932,4.678-7.115v-50.917H91.496
	V157.5c0,0.179-0.023,0.352-0.067,0.517v6.665C91.428,166.441,92.017,168.065,93.009,169.367z M116.496,168.939h14.503l12.292-9.44
	h-32.362v5.182c0,1.501-0.283,2.938-0.798,4.258H116.496z M81.996,168.939h6.23c-0.515-1.321-0.798-2.757-0.798-4.258V159.5H55.066
	l12.292,9.44H81.996z M110.996,155.5h36.183V58.106h-37.244c4.092,3.19,6.728,8.164,6.728,13.742v32.749c0,0,0,0,0,0v0.001v0
	c0,0.001,0,0.003,0,0.004c-0.001,0.001-0.001,0.001,0,0.004c-0.002,0.462-0.161,0.887-0.426,1.224l-5.24,6.829V155.5z M51.178,155.5
	h36.25v-42.926l-5.176-6.744c-0.258-0.329-0.414-0.741-0.424-1.189v0c0-0.001,0-0.002,0-0.003c0-0.015,0-0.03,0-0.045V71.848
	c0-5.578,2.636-10.552,6.728-13.742H51.178V155.5z M90.315,109.765h17.86l2.431-3.167H87.884L90.315,109.765z M85.829,102.598
	h26.833v-30.75c0-7.398-6.019-13.417-13.416-13.417c-7.398,0-13.417,6.019-13.417,13.417V102.598z M51.178,54.106h96V52
	c0-1.396-0.06-2.778-0.177-4.144h-29.823c-1.104,0-2-0.896-2-2v-23.83c0-1.104,0.896-2,2-2h17.771
	c-1.152-1.288-2.373-2.513-3.655-3.67h-10.116c-0.397,0-0.786-0.119-1.116-0.34l-12.926-8.693l2.41,6.32
	c0.235,0.615,0.152,1.306-0.221,1.847c-0.374,0.542-0.989,0.866-1.647,0.866H89.845c-0.679,0-1.311-0.344-1.68-0.914
	c-0.368-0.569-0.423-1.287-0.145-1.906l2.334-5.191L80.122,15.96c-0.346,0.257-0.764,0.396-1.194,0.396H67.062
	c-4.447,4.012-8.146,8.845-10.85,14.254h17.216c1.104,0,2,0.896,2,2v13.246c0,1.104-0.896,2-2,2H51.355
	c-0.117,1.366-0.177,2.748-0.177,4.144V54.106z M119.178,43.856h27.309c-1.253-7.302-4.161-14.046-8.323-19.83h-18.985V43.856z
	 M51.87,43.856h19.559V34.61H54.437C53.286,37.563,52.418,40.655,51.87,43.856z M147.348,32.409
	c0.563,1.382,1.069,2.791,1.515,4.229l3.472-1.233l-1.586-4.184L147.348,32.409z M121.788,12.356h4.426
	c-4.316-2.952-9.138-5.22-14.304-6.643L121.788,12.356z M92.938,12.356h11.837l-3.165-8.295c-1.639-0.083-3.307-0.081-4.943,0.004
	L92.938,12.356z M72.142,12.356h6.124l9.33-6.944C81.995,6.805,76.778,9.185,72.142,12.356z M99.246,87.931
	c-5.836,0-10.584-4.748-10.584-10.583c0-5.835,4.748-10.583,10.584-10.583s10.583,4.748,10.583,10.583
	C109.829,83.184,105.081,87.931,99.246,87.931z M99.246,70.765c-3.631,0-6.584,2.953-6.584,6.583c0,3.63,2.953,6.583,6.584,6.583
	c3.63,0,6.583-2.953,6.583-6.583C105.829,73.718,102.875,70.765,99.246,70.765z M104.928,47.856h-20.75c-1.104,0-2-0.896-2-2V32.61
	c0-1.104,0.896-2,2-2h20.75c1.104,0,2,0.896,2,2v13.246C106.928,46.96,106.033,47.856,104.928,47.856z M86.178,43.856h16.75V34.61
	h-16.75V43.856z M132.516,42.191c-4.549,0-8.25-3.701-8.25-8.25s3.701-8.25,8.25-8.25c4.549,0,8.25,3.701,8.25,8.25
	S137.065,42.191,132.516,42.191z M132.516,29.691c-2.344,0-4.25,1.907-4.25,4.25s1.906,4.25,4.25,4.25s4.25-1.907,4.25-4.25
	S134.86,29.691,132.516,29.691z"/>
<g>
</g>
<g>
</g>
<g>
</g>
<g>
</g>
<g>
</g>
<g>
</g>
<g>
</g>
<g>
</g>
<g>
</g>
<g>
</g>
<g>
</g>
<g>
</g>
<g>
</g>
<g>
</g>
<g>
</g>
</svg>
